X:1
T:[ID 1-11]
T:[ID 1-11]
T:Bezeichnung standardisiert: Menuett Men\"uet In anderer Quelle: 226 - Hs. Bolhuis 1730 ca. (Anm. S. Wascher);
T:Urheber unbekannt Erstbeleg: 1730 (Datum in der schriftlichen Quelle) Urheber unbekannt Datum in der hier transkribierten schriftlichen Quelle: vermutlich vor 1767
C:Urheber unbekannt
C:Erstbeleg: 1730 (Datum in der schriftlichen Quelle)
C:Urheber unbekannt
C:Datum in der hier transkribierten schriftlichen Quelle: vermutlich vor 1767
L:1/8
M:4/4
K:D
V:1 treble 
V:1
 d4 A2 | FDGEAF | B2 c2 d2 | c2 Bc A2 | dfegfa | g2 b2 a2 | g2 fefg | e6 | d4 A2 | FDGEAF | %10
 B2 c2 d2 | c2 Bc A2 | dfegfa | g2 b2 a2 | A2 d2 c2 |"^[sic]" d4 x2 :: e4 d2 | cAdBec | f2 e2 d2 | %19
 c4 B2 | AEBEcE | d2 f2 e2 | a2 c2 c2 | A6 | d2 A4 | BGcAdB | ef g2 f2 | edcB A2 | a4 g2 | %29
 fdge a2 | A2 d2 c2 |"^[sic]" d4 x2 :| %32

